src/assets/icons/som.svg

<svg fill="none" height="208" viewBox="0 0 146 208" width="146" xmlns="http://www.w3.org/2000/svg"><path d="m84.9999 0c-11.1623-.00000118-22.2153 2.1986-32.528 6.47024-10.3126 4.27166-19.683 10.53276-27.576 18.42566-7.893 7.893-14.154 17.2633-18.42568 27.576-4.27165 10.3127-6.47022118 21.3657-6.47022 32.5281-.00000118 11.1624 2.19857 22.215 6.47022 32.528 4.27168 10.313 10.53268 19.683 18.42568 27.576s17.2634 14.154 27.576 18.426c10.3127 4.271 21.3657 6.47 32.528 6.47 22.5361-.02 44.1411-8.988 60.0661-24.934l-17.666-17.666c-11.241 11.256-26.492 17.586-42.4001 17.6-15.9129 0-31.1741-6.321-42.4263-17.574-11.2522-11.252-17.5736-26.513-17.5736-42.426s6.3214-31.1742 17.5736-42.4264 26.5134-17.5736 42.4263-17.5736c15.9081.0138 31.1591 6.3443 42.4001 17.5996l17.666-17.666c-15.925-15.94519-37.53-24.9136257-60.0661-24.9336zm-84.463984 191.5-.535916 16h145.066l.536-16z" fill="#000"/></svg>

<svg width="146" height="208" viewBox="0 0 146 208" fill="none" xmlns="http://www.w3.org/2000/svg">
<path d="M84.9999 0C73.8376 -1.1819e-06 62.7846 2.1986 52.4719 6.47024C42.1593 10.7419 32.7889 17.003 24.8959 24.8959C17.0029 32.7889 10.7419 42.1592 6.47022 52.4719C2.19857 62.7846 -1.1819e-06 73.8376 0 85C-1.1819e-06 96.1624 2.19857 107.215 6.47022 117.528C10.7419 127.841 17.0029 137.211 24.8959 145.104C32.7889 152.997 42.1593 159.258 52.4719 163.53C62.7846 167.801 73.8376 170 84.9999 170C107.536 169.98 129.141 161.012 145.066 145.066L127.4 127.4C116.159 138.656 100.908 144.986 84.9999 145C69.087 145 53.8258 138.679 42.5736 127.426C31.3214 116.174 25 100.913 25 85C25 69.087 31.3214 53.8258 42.5736 42.5736C53.8258 31.3214 69.087 25 84.9999 25C100.908 25.0138 116.159 31.3443 127.4 42.5996L145.066 24.9336C129.141 8.98841 107.536 0.0199743 84.9999 0ZM0.535916 191.5L0 207.5H145.066L145.602 191.5H0.535916Z" fill="black"/>
</svg>
